components/Icon/icons/code.svg

<svg width="50" height="50" viewBox="0 0 50 50" fill="none" xmlns="http://www.w3.org/2000/svg">
<path fill-rule="evenodd" clip-rule="evenodd" d="M15.1687 12.9563C15.3142 13.1015 15.4297 13.2739 15.5085 13.4637C15.5872 13.6535 15.6278 13.8571 15.6278 14.0626C15.6278 14.2681 15.5872 14.4716 15.5085 14.6614C15.4297 14.8513 15.3142 15.0237 15.1687 15.1688L5.33436 25.0001L15.1687 34.8313C15.4621 35.1247 15.627 35.5227 15.627 35.9376C15.627 36.3525 15.4621 36.7504 15.1687 37.0438C14.8753 37.3372 14.4774 37.502 14.0625 37.502C13.6476 37.502 13.2496 37.3372 12.9562 37.0438L2.01874 26.1063C1.87323 25.9612 1.75778 25.7888 1.67901 25.5989C1.60024 25.4091 1.55969 25.2056 1.55969 25.0001C1.55969 24.7946 1.60024 24.591 1.67901 24.4012C1.75778 24.2114 1.87323 24.039 2.01874 23.8938L12.9562 12.9563C13.1014 12.8108 13.2738 12.6954 13.4636 12.6166C13.6535 12.5378 13.857 12.4973 14.0625 12.4973C14.268 12.4973 14.4715 12.5378 14.6613 12.6166C14.8512 12.6954 15.0236 12.8108 15.1687 12.9563V12.9563ZM34.8312 12.9563C34.6857 13.1015 34.5703 13.2739 34.4915 13.4637C34.4127 13.6535 34.3722 13.8571 34.3722 14.0626C34.3722 14.2681 34.4127 14.4716 34.4915 14.6614C34.5703 14.8513 34.6857 15.0237 34.8312 15.1688L44.6656 25.0001L34.8312 34.8313C34.686 34.9766 34.5707 35.1491 34.4921 35.3389C34.4135 35.5287 34.373 35.7321 34.373 35.9376C34.373 36.143 34.4135 36.3465 34.4921 36.5363C34.5707 36.7261 34.686 36.8986 34.8312 37.0438C34.9765 37.1891 35.149 37.3043 35.3388 37.383C35.5286 37.4616 35.732 37.502 35.9375 37.502C36.1429 37.502 36.3464 37.4616 36.5362 37.383C36.726 37.3043 36.8985 37.1891 37.0437 37.0438L47.9812 26.1063C48.1267 25.9612 48.2422 25.7888 48.321 25.5989C48.3997 25.4091 48.4403 25.2056 48.4403 25.0001C48.4403 24.7946 48.3997 24.591 48.321 24.4012C48.2422 24.2114 48.1267 24.039 47.9812 23.8938L37.0437 12.9563C36.8986 12.8108 36.7262 12.6954 36.5363 12.6166C36.3465 12.5378 36.143 12.4973 35.9375 12.4973C35.732 12.4973 35.5285 12.5378 35.3386 12.6166C35.1488 12.6954 34.9764 12.8108 34.8312 12.9563V12.9563ZM31.7094 3.19382C32.105 3.31624 32.4358 3.59072 32.6292 3.95695C32.8226 4.32318 32.8626 4.7512 32.7406 5.14695L20.2406 45.772C20.1068 46.1529 19.8306 46.4673 19.4701 46.6491C19.1096 46.8309 18.6926 46.8661 18.3067 46.7473C17.9208 46.6285 17.5959 46.3649 17.4 46.0118C17.2042 45.6587 17.1527 45.2435 17.2562 44.8532L29.7562 4.2282C29.8786 3.83256 30.1531 3.50171 30.5194 3.30834C30.8856 3.11497 31.3136 3.07491 31.7094 3.19695V3.19382Z" fill="black"/>
</svg>

<svg xmlns="http://www.w3.org/2000/svg"
viewBox="0 0 50 50" width="100%" height="100%" fill="currentColor"  xmlns:v="https://vecta.io/nano"><path fill-rule="evenodd" d="M15.169 12.956c.146.145.261.318.34.507s.119.393.119.599-.041.409-.119.599a1.56 1.56 0 0 1-.34.507L5.334 25l9.834 9.831c.293.293.458.691.458 1.106s-.165.813-.458 1.106-.691.458-1.106.458-.813-.165-1.106-.458L2.019 26.106A1.56 1.56 0 0 1 1.56 25c0-.206.041-.409.119-.599s.194-.362.34-.507l10.937-10.937c.145-.146.318-.261.507-.34s.393-.119.599-.119a1.56 1.56 0 0 1 1.106.459h0zm19.663 0c-.146.145-.261.318-.34.507a1.56 1.56 0 0 0 0 1.198 1.56 1.56 0 0 0 .34.507L44.666 25l-9.834 9.831c-.145.145-.261.318-.339.508s-.119.393-.119.599.041.409.119.599.194.362.339.508.318.261.508.339.393.119.599.119.409-.04.599-.119.362-.194.508-.339l10.938-10.937a1.56 1.56 0 0 0 .34-.507c.079-.19.119-.393.119-.599s-.041-.409-.119-.599-.194-.362-.34-.507L37.044 12.956a1.56 1.56 0 0 0-1.106-.459c-.206 0-.409.041-.599.119s-.362.194-.507.34h0zm-3.122-9.762c.396.122.726.397.92.763s.233.794.111 1.19l-12.5 40.625a1.56 1.56 0 0 1-.771.877c-.36.182-.777.217-1.163.098s-.711-.382-.907-.736-.247-.768-.144-1.159l12.5-40.625a1.56 1.56 0 0 1 1.953-1.031v-.003z" fill="currentColor"/></svg>
